symbolic/24x24/apps/forager.svg

<svg xmlns="http://www.w3.org/2000/svg" width="24" height="24" version="1">
 <path style="opacity:0.2" d="M 16.58121,3.5075091 C 12.568031,3.7301843 7.8618394,4.3242541 4.9767652,5.5700005 1.869623,6.9116345 0.81620215,8.8075987 1.0256095,10.378574 l 0.8173795,6.127905 c 0.083391,0.625597 0.2305157,1.233634 0.4394513,1.800774 -0.00172,-0.0023 -0.00317,-0.0045 -0.00488,-0.0068 0.00422,0.0115 0.010374,0.02174 0.014648,0.0332 0.080287,0.215313 0.1687404,0.424889 0.2685536,0.625974 0.00237,0.0048 0.00445,0.0099 0.00684,0.01465 0.012201,0.02442 0.021683,0.05101 0.034179,0.07519 0.069198,0.1339 0.1427847,0.251348 0.2187491,0.362304 0.7793969,1.267346 2.0167114,2.127067 3.839828,2.086905 l 4.411114,-0.07422 c 2.581116,-0.04314 8.296813,-1.48808 9.944295,-2.746082 1.52365,-1.076437 2.239119,-1.848775 1.902337,-4.517559 L 22.218882,8.61491 C 22.086592,5.928214 19.603346,3.3398226 16.58121,3.5075091 Z"/>
 <path style="fill:#e4e4e4" d="M 4.9769644,5.0706015 C 7.8620384,3.824855 12.56839,3.230425 16.581569,3.0077498 c 3.022136,-0.1676865 5.5046,2.4211232 5.63689,5.1078192 l 0.277679,5.6394 c 0.13229,2.686695 -0.972347,3.168604 -2.495997,4.245042 -1.647483,1.258001 -6.835233,2.816775 -9.397538,2.502756 L 6.5001965,20.000002 C 4.5045491,20.043965 3.3604521,20.017438 2.6017858,18.549398 2.2100534,17.791385 1.963733,16.915296 1.8427046,16.007341 L 1.0258287,9.8791343 C 0.8164213,8.3081582 1.8698222,6.4122355 4.9769644,5.0706015 Z"/>
 <path style="opacity:0.1;fill:none;stroke:#000000;stroke-width:0.49999794" d="m 9.8798026,14.612135 1.6203734,1.138096 1.26906,-1.959862"/>
 <ellipse id="ellipse916" style="opacity:0.1" cx="6.555" cy="10.599" rx="1.213" ry="3.015" transform="matrix(0.98891953,0.14845259,-0.11624302,0.9932208,0,0)"/>
 <ellipse style="fill:#3f3f3f" cx="6.497" cy="10.104" rx="1.213" ry="3.015" transform="matrix(0.98891953,0.14845259,-0.11624302,0.9932208,0,0)"/>
 <ellipse id="ellipse918" style="opacity:0.1" cx="16.26" cy="7.135" rx="1.213" ry="3.015" transform="matrix(0.98891953,0.14845259,-0.11624302,0.9932208,0,0)"/>
 <ellipse id="ellipse844" style="fill:#ffffff" cx="4.058" cy="12.253" rx=".532" ry=".67" transform="matrix(0.73343411,-0.67976055,0.1988081,0.98003844,0,0)"/>
 <ellipse id="ellipse889" style="fill:#3f3f3f" cx="16.201" cy="6.64" rx="1.213" ry="3.015" transform="matrix(0.98891953,0.14845259,-0.11624302,0.9932208,0,0)"/>
 <ellipse id="ellipse891" style="fill:#ffffff" cx="16" cy="18.496" rx=".532" ry=".67" transform="matrix(0.73343411,-0.67976055,0.1988081,0.98003844,0,0)"/>
 <path style="fill:none;stroke:#3f3f3f;stroke-width:0.49999794" d="m 9.8798026,14.111926 1.6203734,1.138096 1.26906,-1.959862"/>
 <path style="fill:#eb73ff" d="m 21.604368,6.1367926 c 0.506452,3.9629954 0.839646,8.7333234 -1.372839,10.3159614 -4.98067,2.803432 -9.83891,3.058112 -15.2636941,3.148782 -0.963009,0.02122 -1.8753933,-0.710524 -2.6899223,-1.800984 0.6805041,1.854201 2.0626306,3.24913 4.3821547,3.198033 l 4.4116937,-0.07351 c 2.581116,-0.04314 8.296553,-1.488682 9.944036,-2.746684 1.523649,-1.076437 2.239113,-1.848377 1.902331,-4.517162 L 22.218416,8.1156695 C 22.132789,7.4371353 21.921286,6.7627251 21.604368,6.1367926 Z"/>
 <path style="opacity:0.2" d="m 21.604627,6.1367781 c 0.02804,0.2194506 0.05155,0.4481482 0.07812,0.6718723 0.271014,0.5772511 0.458205,1.1891186 0.536131,1.8066331 l 0.699216,5.5458755 c 0.03716,0.294485 0.05649,0.557339 0.06836,0.80859 0.0099,-0.384005 -0.0047,-0.80372 -0.06836,-1.308588 L 22.218882,8.1152855 C 22.133255,7.4367513 21.921545,6.7627101 21.604627,6.1367781 Z m 0.368162,5.0175579 c -0.02187,2.326689 -0.438457,4.366924 -1.741203,5.298806 -4.98067,2.803431 -9.838825,3.057755 -15.2636098,3.148424 -0.963009,0.02122 -1.8758897,-0.710314 -2.6904186,-1.800774 0.1599916,0.435937 0.3619158,0.843476 0.6025365,1.215816 0.652804,0.680918 1.3558206,1.101083 2.0878821,1.084956 5.4247848,-0.09067 10.2829398,-0.344993 15.2636098,-3.148424 1.395543,-0.998263 1.775926,-3.266613 1.741203,-5.798804 z"/>
 <path style="opacity:0.2;fill:#ffffff" d="M 16.58121,3.0078845 C 12.568031,3.2305597 7.8618394,3.8246295 4.9767652,5.070376 1.9657466,6.3705047 0.88741141,8.1904462 1.0138909,9.7314899 1.1380983,8.3093797 2.286221,6.7321252 4.9767652,5.570374 7.8618394,4.3246274 12.568031,3.7305577 16.58121,3.5078824 c 3.022136,-0.1676865 5.505382,2.4207051 5.637672,5.1074011 l 0.277343,5.6396255 c 0.0027,0.05483 0.0023,0.103228 0.0039,0.156249 0.007,-0.204649 0.0078,-0.419192 -0.0039,-0.656247 L 22.218882,8.1152855 C 22.086592,5.4285895 19.603346,2.840198 16.58121,3.0078845 Z"/>
</svg>

<svg xmlns="http://www.w3.org/2000/svg" width="24" height="24" version="1"><path style="opacity:.2" d="M16.581 3.508c-4.013.222-8.72.816-11.604 2.062C1.87 6.912.817 8.808 1.026 10.379l.817 6.127c.083.626.23 1.234.44 1.801l-.005-.007.014.034c.08.215.169.425.269.626l.007.014c.012.025.021.051.034.075.069.134.143.252.219.363.779 1.267 2.016 2.127 3.84 2.087l4.41-.075c2.582-.043 8.297-1.488 9.945-2.746 1.523-1.076 2.239-1.848 1.902-4.517l-.7-5.546c-.131-2.687-2.615-5.275-5.637-5.107z"/><path style="fill:#e4e4e4" d="M4.977 5.07c2.885-1.245 7.591-1.84 11.605-2.062 3.022-.168 5.504 2.42 5.636 5.108l.278 5.639c.132 2.687-.972 3.169-2.496 4.245-1.647 1.258-6.835 2.817-9.397 2.503L6.5 20c-1.995.044-3.14.017-3.898-1.45-.392-.759-.638-1.635-.76-2.543L1.027 9.88c-.21-1.57.844-3.467 3.951-4.808z"/><path style="opacity:.1;fill:none;stroke:#000;stroke-width:.49999794" d="m9.88 14.612 1.62 1.138 1.27-1.96"/><ellipse style="opacity:.1" cx="6.555" cy="10.599" rx="1.213" ry="3.015" transform="matrix(.98892 .14845 -.11624 .99322 0 0)"/><ellipse style="fill:#3f3f3f" cx="6.497" cy="10.104" rx="1.213" ry="3.015" transform="matrix(.98892 .14845 -.11624 .99322 0 0)"/><ellipse style="opacity:.1" cx="16.26" cy="7.135" rx="1.213" ry="3.015" transform="matrix(.98892 .14845 -.11624 .99322 0 0)"/><ellipse style="fill:#fff" cx="4.058" cy="12.253" rx=".532" ry=".67" transform="matrix(.73343 -.67976 .1988 .98004 0 0)"/><ellipse style="fill:#3f3f3f" cx="16.201" cy="6.64" rx="1.213" ry="3.015" transform="matrix(.98892 .14845 -.11624 .99322 0 0)"/><ellipse style="fill:#fff" cx="16" cy="18.496" rx=".532" ry=".67" transform="matrix(.73343 -.67976 .1988 .98004 0 0)"/><path style="fill:none;stroke:#3f3f3f;stroke-width:.49999794" d="m9.88 14.112 1.62 1.138 1.27-1.96"/><path style="fill:#eb73ff" d="M21.604 6.137c.507 3.963.84 8.733-1.372 10.316-4.981 2.803-9.84 3.058-15.264 3.149-.963.02-1.876-.711-2.69-1.801.68 1.854 2.063 3.249 4.382 3.198l4.412-.074c2.58-.043 8.296-1.489 9.944-2.747 1.523-1.076 2.239-1.848 1.902-4.517l-.7-5.545a6.095 6.095 0 0 0-.614-1.98z"/><path style="opacity:.2" d="M21.605 6.137c.028.22.051.448.078.672.27.577.458 1.189.536 1.806l.7 5.546c.036.295.056.557.067.809a8.492 8.492 0 0 0-.068-1.309l-.7-5.546a6.093 6.093 0 0 0-.613-1.978zm.368 5.017c-.022 2.327-.439 4.367-1.741 5.3-4.981 2.803-9.84 3.057-15.264 3.148-.963.02-1.876-.71-2.69-1.801.16.436.361.843.602 1.216.653.68 1.356 1.1 2.088 1.085 5.425-.091 10.283-.345 15.264-3.149 1.395-.998 1.776-3.266 1.74-5.799z"/><path style="opacity:.2;fill:#fff" d="M16.581 3.008c-4.013.223-8.72.817-11.604 2.062-3.011 1.3-4.09 3.12-3.963 4.661.124-1.422 1.272-2.999 3.963-4.16 2.885-1.246 7.591-1.84 11.604-2.063 3.022-.168 5.506 2.42 5.638 5.107l.277 5.64c.003.055.003.103.004.156a7.75 7.75 0 0 0-.004-.656l-.277-5.64c-.132-2.686-2.616-5.275-5.638-5.107z"/></svg>
